svgs/thin/chart-simple.svg

<svg xmlns="http://www.w3.org/2000/svg" viewBox="0 0 448 512"><!--! Font Awesome Pro 6.6.0 by @fontawesome - https://fontawesome.com License - https://fontawesome.com/license (Commercial License) Copyright 2024 Fonticons, Inc. --><path d="M240 48c17.7 0 32 14.3 32 32l0 352c0 17.7-14.3 32-32 32l-32 0c-17.7 0-32-14.3-32-32l0-352c0-17.7 14.3-32 32-32l32 0zM208 32c-26.5 0-48 21.5-48 48l0 352c0 26.5 21.5 48 48 48l32 0c26.5 0 48-21.5 48-48l0-352c0-26.5-21.5-48-48-48l-32 0zM80 240c17.7 0 32 14.3 32 32l0 160c0 17.7-14.3 32-32 32l-32 0c-17.7 0-32-14.3-32-32l0-160c0-17.7 14.3-32 32-32l32 0zM48 224c-26.5 0-48 21.5-48 48L0 432c0 26.5 21.5 48 48 48l32 0c26.5 0 48-21.5 48-48l0-160c0-26.5-21.5-48-48-48l-32 0zM368 112l32 0c17.7 0 32 14.3 32 32l0 288c0 17.7-14.3 32-32 32l-32 0c-17.7 0-32-14.3-32-32l0-288c0-17.7 14.3-32 32-32zm-48 32l0 288c0 26.5 21.5 48 48 48l32 0c26.5 0 48-21.5 48-48l0-288c0-26.5-21.5-48-48-48l-32 0c-26.5 0-48 21.5-48 48z"/></svg>

<svg xmlns="http://www.w3.org/2000/svg" viewBox="0 0 448 512"><!--! Font Awesome Pro 6.4.2 by @fontawesome - https://fontawesome.com License - https://fontawesome.com/license (Commercial License) Copyright 2023 Fonticons, Inc. --><path d="M240 48c17.7 0 32 14.3 32 32V432c0 17.7-14.3 32-32 32H208c-17.7 0-32-14.3-32-32V80c0-17.7 14.3-32 32-32h32zM208 32c-26.5 0-48 21.5-48 48V432c0 26.5 21.5 48 48 48h32c26.5 0 48-21.5 48-48V80c0-26.5-21.5-48-48-48H208zM80 240c17.7 0 32 14.3 32 32V432c0 17.7-14.3 32-32 32H48c-17.7 0-32-14.3-32-32V272c0-17.7 14.3-32 32-32H80zM48 224c-26.5 0-48 21.5-48 48V432c0 26.5 21.5 48 48 48H80c26.5 0 48-21.5 48-48V272c0-26.5-21.5-48-48-48H48zM368 112h32c17.7 0 32 14.3 32 32V432c0 17.7-14.3 32-32 32H368c-17.7 0-32-14.3-32-32V144c0-17.7 14.3-32 32-32zm-48 32V432c0 26.5 21.5 48 48 48h32c26.5 0 48-21.5 48-48V144c0-26.5-21.5-48-48-48H368c-26.5 0-48 21.5-48 48z"/></svg>
